icons/src/scalable/default/ui/focus-legacy-systray-symbolic.svg

<?xml version="1.0" encoding="UTF-8" standalone="no"?>
<svg
   xmlns:dc="http://purl.org/dc/elements/1.1/"
   xmlns:cc="http://creativecommons.org/ns#"
   xmlns:rdf="http://www.w3.org/1999/02/22-rdf-syntax-ns#"
   xmlns:svg="http://www.w3.org/2000/svg"
   xmlns="http://www.w3.org/2000/svg"
   xmlns:sodipodi="http://sodipodi.sourceforge.net/DTD/sodipodi-0.dtd"
   xmlns:inkscape="http://www.inkscape.org/namespaces/inkscape"
   width="16.002"
   height="16"
   version="1.1"
   id="svg8"
   sodipodi:docname="focus-legacy-systray-symbolic.svg"
   inkscape:version="1.0.2 (e86c870879, 2021-01-15)">
  <metadata
     id="metadata14">
    <rdf:RDF>
      <cc:Work
         rdf:about="">
        <dc:format>image/svg+xml</dc:format>
        <dc:type
           rdf:resource="http://purl.org/dc/dcmitype/StillImage" />
      </cc:Work>
    </rdf:RDF>
  </metadata>
  <defs
     id="defs12" />
  <sodipodi:namedview
     pagecolor="#ffffff"
     bordercolor="#666666"
     borderopacity="1"
     objecttolerance="10"
     gridtolerance="10"
     guidetolerance="10"
     inkscape:pageopacity="0"
     inkscape:pageshadow="2"
     inkscape:window-width="1920"
     inkscape:window-height="1016"
     id="namedview10"
     showgrid="false"
     inkscape:zoom="8"
     inkscape:cx="17.03799"
     inkscape:cy="12.864023"
     inkscape:window-x="0"
     inkscape:window-y="27"
     inkscape:window-maximized="1"
     inkscape:current-layer="svg8">
    <inkscape:grid
       type="xygrid"
       id="grid839" />
  </sodipodi:namedview>
  <g
     color="#000"
     fill="#2e3436"
     id="g6"
     style="fill:#bebebe;fill-opacity:1">
    <path
       id="path2"
       style="line-height:normal;text-indent:0;text-align:start;text-decoration:none;text-decoration-line:none;text-decoration-style:solid;text-decoration-color:#000000;text-transform:none;white-space:normal;isolation:auto;mix-blend-mode:normal;solid-color:#000000;solid-opacity:1;fill:#bebebe;fill-opacity:1;marker:none"
       d="M 7.9355469 2 L 0.001953125 2.0097656 L 0 13.978516 L 9.96875 13.978516 L 9.9960938 4.0605469 C 9.9960938 2.9355469 9.0595469 2 7.9355469 2 z M 4.3535156 4.6464844 L 7.7070312 8 L 4.3535156 11.353516 L 3.6464844 10.646484 L 6.2929688 8 L 3.6464844 5.3535156 L 4.3535156 4.6464844 z " />
    <path
       d="M9.986 2.031s1.032.484 1.032 1.969v10h.984V4c0-1.25-2.016-1.969-2.016-1.969zM11.97 2.031s1.032.484 1.032 1.969v10h1V4c0-1.25-2.031-1.969-2.031-1.969z"
       style="isolation:auto;mix-blend-mode:normal;solid-color:#000;solid-opacity:1;marker:none;fill:#bebebe;fill-opacity:1"
       overflow="visible"
       id="path4" />
  </g>
</svg>

<svg version="1.1" viewBox="0 0 16.002 16" xmlns="http://www.w3.org/2000/svg">
 <g fill="#bebebe">
  <path d="m7.9355 2-7.9336 0.0097656-0.0019531 11.969h9.9688l0.027344-9.918c0-1.125-0.93655-2.0605-2.0605-2.0605zm-3.582 2.6465 3.3535 3.3535-3.3535 3.3535-0.70703-0.70703 2.6465-2.6465-2.6465-2.6465 0.70703-0.70703z" solid-color="#000000" style="isolation:auto;mix-blend-mode:normal;text-decoration-color:#000000;text-decoration-line:none;text-decoration-style:solid;text-indent:0;text-transform:none;white-space:normal"/>
  <path d="M9.986 2.031s1.032.484 1.032 1.969v10h.984V4c0-1.25-2.016-1.969-2.016-1.969zM11.97 2.031s1.032.484 1.032 1.969v10h1V4c0-1.25-2.031-1.969-2.031-1.969z" overflow="visible" style="isolation:auto;mix-blend-mode:normal"/>
 </g>
</svg>
